!!!OTL: 140. Freylekhs
!!!Genre:	Freylekhs
!!!Mode:	Minor
!!!Listening/dance:	dance
!!!One_Mode:	yes
**kern
*I"P1
*clefG2
*k[b-e-]
*g:
*M2/4
*>A
=1
4g
4g
=2
4g
4g
=3
8gL
16gL
16b-JJ
8aL
16aL
16ccJJ
=4
8b-L
8b-J
8aL
8gJ
=5
8gL
16gL
16b-JJ
8aL
16aL
16ccJJ
=6
8b-L
8b-J
8aL
8gJ
=7
8ddL
16ccL
16b-JJ
8aL
8gJ
=8
8ddL
16ccL
16b-JJ
8aL
8gJ
=9
8b-L
8dd
8a
8ddJ
=10
2g
=11||
*>B
2dd
=12
2dd
=13
4dd
4dd
=14
4dd
4dd
=15
16ddLL
16ffJ
8ee-J
16ddLL
16ffJ
8ee-J
=16
16ddLL
16ffJ
8ee-J
8ddL
8ccJ
=17
16ccLL
16ee-J
8ddJ
16ccLL
16ee-J
8ddJ
=18
16ccLL
16ee-J
8ddJ
8ccL
8b-J
=19
8b-L
(8qdd/
8cc)
8b-
(8qdd/
8ccJ)
=20
8b-L
(8qdd/
8cc)
8b-
8aJ
=21
16gLL
16a
16b-
16ccJJ
8ddL
8gJ
=22
8b-L
16ccL
16b-JJ
8aL
8gJ
=23
16gLL
16a
16b-
16ccJJ
8ddL
8gJ
=24
8b-L
16ccL
16b-JJ
8aL
8gJ
=25
4b-
8aL
8gJ
=26
8b-L
16ccL
16b-JJ
8aL
8gJ
=27
8b-L
8dd
8a
8ddJ
=28
2g
==
*-
